X: 111
T: No_47_Song_when_Administering_Herb_Medicine.krn
N: Derived from No_47_Song_when_Administering_Herb_Medicine.krn
%%abc-version 2.0
%%abcx-abcm2ps-target-version 5.9.1 (29 Sep 2008)
%%abc-creator hum2abc beta
%%abcx-conversion-date 2019/03/15 08:37:56
%%humdrum-veritas 3728787971
%%humdrum-veritas-data 1876665604
%%linebreak <none>
%%barnumbers 0
L: 1/8
M: 3/4
K: Eb clef=bass
[K:clef=bass][M:3/4]F,F, F,F, F,F, | 
(G,3/F,/) F,F, F,F, | 
G,F,F,2F,F, ||  
[M:2/4]F,2G,F, ||  
[M:3/4]F,2E,2C,C, | 
F,F,E,2C,C, ||  
[M:2/4]E,2C,2 | 
F,F, F,F, ||  
[M:3/4](G,3/F,/) F,F, F,F, | 
G,F,F,2G,F, ||  
[M:2/4]F,2F,F, ||  
[M:3/4]F,2E,2C,C, | 
F,F,E,2C,C, ||  
[M:2/4]E,2C,2 ]|:  
G,2F,F, | 
F,2F,F, ||  
[M:3/4]F,2E,2C,C, | 
F,F,E,2C,C, ||  
[M:2/4]E,2C,2 :|]  



